X: 37943
T: Spalpeen's Lament, The
R: waltz
M: 3/4
K: Gmajor
e3/2d/|^c A3 GA|G4 A2|c3 d ef|
gf/g/ a3 g|(3:2:1e(3:2:1d(3:2:1^c d e2 d|
^c A3 EF|G4 A3/2B/|c A3 AB|c3 d ef|
gf/g/ a2 AB|c3/2A/ B3 A/G/|(3:2:1E(3:2:1F(3:2:1G A4||

